polaris-icons/icons/newicons/TextAlignmentRightMajor.svg

<svg width="20" height="20" viewBox="0 0 20 20" fill="none" xmlns="http://www.w3.org/2000/svg">
<path d="M2.75 4C2.33579 4 2 4.33579 2 4.75C2 5.16421 2.33579 5.5 2.75 5.5H17.25C17.6642 5.5 18 5.16421 18 4.75C18 4.33579 17.6642 4 17.25 4H2.75Z" fill="black"/>
<path d="M9.25 7.5C8.83579 7.5 8.5 7.83579 8.5 8.25C8.5 8.66421 8.83579 9 9.25 9H17.25C17.6642 9 18 8.66421 18 8.25C18 7.83579 17.6642 7.5 17.25 7.5H9.25Z" fill="black"/>
<path d="M2 11.75C2 11.3358 2.33579 11 2.75 11H17.25C17.6642 11 18 11.3358 18 11.75C18 12.1642 17.6642 12.5 17.25 12.5H2.75C2.33579 12.5 2 12.1642 2 11.75Z" fill="black"/>
<path d="M9.25 14.5C8.83579 14.5 8.5 14.8358 8.5 15.25C8.5 15.6642 8.83579 16 9.25 16H17.25C17.6642 16 18 15.6642 18 15.25C18 14.8358 17.6642 14.5 17.25 14.5H9.25Z" fill="black"/>
</svg>

<svg viewBox="0 0 20 20" fill="none" xmlns="http://www.w3.org/2000/svg"><path d="M2.75 4a.75.75 0 0 0 0 1.5h14.5a.75.75 0 0 0 0-1.5h-14.5Z" fill="#5C5F62"/><path d="M9.25 7.5a.75.75 0 0 0 0 1.5h8a.75.75 0 0 0 0-1.5h-8Z" fill="#5C5F62"/><path d="M2 11.75a.75.75 0 0 1 .75-.75h14.5a.75.75 0 0 1 0 1.5h-14.5a.75.75 0 0 1-.75-.75Z" fill="#5C5F62"/><path d="M9.25 14.5a.75.75 0 0 0 0 1.5h8a.75.75 0 0 0 0-1.5h-8Z" fill="#5C5F62"/></svg>
